X: 8438
T: Crabs In The Skillet
R: jig
M: 6/8
K: Gminor
D|:"Gm"G3 d2F|G2A B2c|"Dm"ded cBA|dcB AG^F|
"Gm"G3 d2F|G2A B2d|"Cm"cAc "F7"f=ed|1 cAF F=EF:|2 cAF "Gm"G2f||
|:"Gm"gag gf=e|"Dm"fgf f=ed|"C7"cd=e "F7"f=ed|cAF F2f|
"Gm"~g3 gf=e|"Dm"~f3 f=ed|"C7"cd=e "F7"f=ed|1 cAF "Gm"G2f:|2 cAF "F7"F=EF||
|:"Gm"G3 "Am"A3|"Bm"B3 "Cm"c3|"Dm"ded cBA|dcB AG^F|
"Gm"G3 "Am"A3|"Bm"B3 "Dm"d3|"Cm"cAc "F7"f=ed|1 cAF F=EF:|2 cAF "Gm"G2 D||

